src/main/resources/static/fa/svgs/solid/file-circle-question.svg

<svg xmlns="http://www.w3.org/2000/svg" viewBox="0 0 576 512"><!--! Font Awesome Free 6.5.2 by @fontawesome - https://fontawesome.com License - https://fontawesome.com/license/free (Icons: CC BY 4.0, Fonts: SIL OFL 1.1, Code: MIT License) Copyright 2024 Fonticons, Inc. --><path d="M0 64C0 28.7 28.7 0 64 0H224V128c0 17.7 14.3 32 32 32H384v38.6C310.1 219.5 256 287.4 256 368c0 59.1 29.1 111.3 73.7 143.3c-3.2 .5-6.4 .7-9.7 .7H64c-35.3 0-64-28.7-64-64V64zm384 64H256V0L384 128zm48 96a144 144 0 1 1 0 288 144 144 0 1 1 0-288zm0 240a24 24 0 1 0 0-48 24 24 0 1 0 0 48zM368 321.6V328c0 8.8 7.2 16 16 16s16-7.2 16-16v-6.4c0-5.3 4.3-9.6 9.6-9.6h40.5c7.7 0 13.9 6.2 13.9 13.9c0 5.2-2.9 9.9-7.4 12.3l-32 16.8c-5.3 2.8-8.6 8.2-8.6 14.2V384c0 8.8 7.2 16 16 16s16-7.2 16-16v-5.1l23.5-12.3c15.1-7.9 24.5-23.6 24.5-40.6c0-25.4-20.6-45.9-45.9-45.9H409.6c-23 0-41.6 18.6-41.6 41.6z"/></svg>

<svg xmlns="http://www.w3.org/2000/svg" viewBox="0 0 576 512"><!--! Font Awesome Free 6.1.1 by @fontawesome - https://fontawesome.com License - https://fontawesome.com/license/free (Icons: CC BY 4.0, Fonts: SIL OFL 1.1, Code: MIT License) Copyright 2022 Fonticons, Inc. --><path d="M0 64C0 28.65 28.65 0 64 0H224V128C224 145.7 238.3 160 256 160H384V198.6C310.1 219.5 256 287.4 256 368C256 427.1 285.1 479.3 329.7 511.3C326.6 511.7 323.3 512 320 512H64C28.65 512 0 483.3 0 448V64zM256 128V0L384 128H256zM288 368C288 288.5 352.5 224 432 224C511.5 224 576 288.5 576 368C576 447.5 511.5 512 432 512C352.5 512 288 447.5 288 368zM432 464C445.3 464 456 453.3 456 440C456 426.7 445.3 416 432 416C418.7 416 408 426.7 408 440C408 453.3 418.7 464 432 464zM368 328C368 336.8 375.2 344 384 344C392.8 344 400 336.8 400 328V321.6C400 316.3 404.3 312 409.6 312H450.1C457.8 312 464 318.2 464 325.9C464 331.1 461.1 335.8 456.6 338.3L424.6 355.1C419.3 357.9 416 363.3 416 369.2V384C416 392.8 423.2 400 432 400C440.8 400 448 392.8 448 384V378.9L471.5 366.6C486.6 358.6 496 342.1 496 325.9C496 300.6 475.4 280 450.1 280H409.6C386.6 280 368 298.6 368 321.6V328z"/></svg>
